Easy-Camper/img/priority/04.svg

<svg width="32" height="32" fill="none" xmlns="http://www.w3.org/2000/svg"><path d="M27.801 4H26V0h-4v4H10V0H6v4H4.199A4.2 4.2 0 000 8.199v19.603A4.199 4.199 0 004.199 32h23.603A4.199 4.199 0 0032 27.801V8.199A4.2 4.2 0 0027.801 4zM28 28H4V12h24v16z" fill="#22262A"/><path d="M15 16H7v8h8v-8z" fill="#22262A"/></svg>

<svg width="32" height="32" viewBox="0 0 32 32" fill="none" xmlns="http://www.w3.org/2000/svg">
<path d="M27.801 4H26V0H22V4H10V0H6V4H4.199C1.88 4 0 5.88 0 8.199V27.802C0 30.12 1.88 32 4.199 32H27.802C30.12 32 32 30.12 32 27.801V8.199C32 5.88 30.12 4 27.801 4ZM28 28H4V12H28V28Z" fill="#22262A"/>
<path d="M15 16H7V24H15V16Z" fill="#22262A"/>
</svg>
